src/asset/24px/user-woman.svg

<svg width="24" height="24" viewBox="0 0 24 24" fill="none" xmlns="http://www.w3.org/2000/svg">
<path fill-rule="evenodd" clip-rule="evenodd" d="M6.52272 4.63716C7.60273 3.01525 9.36466 2 12 2C14.6353 2 16.3973 3.01525 17.4773 4.63716C18.5033 6.17804 18.8328 8.14922 18.9448 9.93863C19.0527 11.6642 17.6328 13 16 13H15.3688C15.2899 13.1185 15.2072 13.233 15.1209 13.3433C17.9551 13.9872 20.3477 15.5125 21.419 17.6232C21.8714 18.5147 21.6649 19.4266 21.1252 20.0574C20.6146 20.6542 19.8217 21 19 21H5.00003C4.17837 21 3.38548 20.6542 2.87488 20.0574C2.3352 19.4266 2.12862 18.5147 2.58109 17.6232C3.6524 15.5125 6.04493 13.9872 8.87911 13.3433C8.79283 13.233 8.71016 13.1185 8.63123 13H7.99999C6.36721 13 4.94728 11.6642 5.05522 9.93863C5.16715 8.14922 5.49667 6.17804 6.52272 4.63716ZM16.2559 10.9683C16.6913 10.8569 16.974 10.468 16.9487 10.0635C16.8422 8.3619 16.5363 6.83256 15.8126 5.74566C15.2617 4.91835 14.4182 4.27103 13.0008 4.06729C13.0257 5.10418 13.6305 5.57204 14.5877 6.24194L14.6288 6.27071C14.9878 6.52175 15.4404 6.83824 15.792 7.22844C16.1897 7.66972 16.5 8.247 16.5 9C16.5 9.68104 16.4157 10.3449 16.2559 10.9683ZM8.18742 5.74566C8.73831 4.91835 9.58174 4.27104 10.9991 4.06729C10.9686 5.25981 10.1323 7.27005 8.12863 8.07152C7.74897 8.22339 7.50002 8.5911 7.50002 9C7.50002 9.68104 7.58437 10.3449 7.74413 10.9683C7.30871 10.8569 7.02601 10.468 7.05132 10.0635C7.15776 8.3619 7.46367 6.83256 8.18742 5.74566ZM12.2128 6.90536C11.6556 7.94863 10.7825 8.95052 9.53101 9.62125C9.65277 10.8274 10.1205 11.8121 10.7059 12.3954C10.8942 12.5831 11 12.838 11 13.1038V14.1487C11 14.6432 10.6386 15.0635 10.1496 15.1374C7.27389 15.5725 5.16097 16.9592 4.36453 18.5284C4.32852 18.5994 4.33277 18.6343 4.33448 18.646C4.3371 18.6637 4.34817 18.7029 4.39459 18.7572C4.49644 18.8762 4.71711 19 5.00003 19H19C19.2829 19 19.5036 18.8762 19.6055 18.7572C19.6519 18.7029 19.663 18.6637 19.6656 18.646C19.6673 18.6343 19.6715 18.5994 19.6355 18.5284C18.8391 16.9592 16.7262 15.5725 13.8505 15.1374C13.3615 15.0635 13 14.6432 13 14.1487V13.1038C13 12.838 13.1059 12.5831 13.2942 12.3954C13.9772 11.7148 14.5 10.4877 14.5 9C14.5 8.85402 14.4568 8.73436 14.3062 8.56723C14.1232 8.36407 13.8544 8.16992 13.4409 7.88052L13.3847 7.84124C13.0327 7.59522 12.6068 7.29754 12.2128 6.90536Z" fill="#808080"/>
</svg>

<svg width="24" height="24" fill="none" xmlns="http://www.w3.org/2000/svg"><path fill-rule="evenodd" clip-rule="evenodd" d="M6.523 4.637C7.603 3.015 9.365 2 12 2c2.635 0 4.397 1.015 5.477 2.637 1.026 1.541 1.356 3.512 1.468 5.302C19.053 11.664 17.633 13 16 13h-.631a5.536 5.536 0 01-.248.343c2.834.644 5.227 2.17 6.298 4.28.452.892.246 1.804-.294 2.434-.51.597-1.303.943-2.125.943H5c-.822 0-1.615-.346-2.125-.943-.54-.63-.746-1.542-.294-2.434 1.071-2.11 3.464-3.636 6.298-4.28A5.557 5.557 0 018.631 13H8c-1.633 0-3.053-1.336-2.945-3.061.112-1.79.442-3.761 1.468-5.302zm9.733 6.331c.435-.111.718-.5.693-.905-.107-1.701-.413-3.23-1.136-4.317-.551-.828-1.395-1.475-2.812-1.679.025 1.037.63 1.505 1.587 2.175l.04.029c.36.25.812.567 1.164.957.398.442.708 1.019.708 1.772 0 .681-.084 1.345-.244 1.968zM8.187 5.746C8.738 4.918 9.582 4.27 11 4.067c-.03 1.193-.867 3.203-2.87 4.005A1 1 0 007.5 9c0 .681.084 1.345.244 1.968-.435-.111-.718-.5-.693-.905.107-1.701.413-3.23 1.136-4.317zm4.026 1.16A6.555 6.555 0 019.53 9.62c.122 1.206.59 2.191 1.175 2.774a1 1 0 01.294.709v1.045a1 1 0 01-.85.988c-2.876.435-4.989 1.822-5.785 3.391-.036.071-.032.106-.03.118a.232.232 0 00.06.111c.101.12.322.243.605.243h14c.283 0 .504-.124.605-.243a.232.232 0 00.06-.111c.002-.012.007-.047-.03-.118-.796-1.569-2.909-2.955-5.785-3.39a1 1 0 01-.85-.99v-1.044a1 1 0 01.294-.709c.683-.68 1.206-1.907 1.206-3.395 0-.146-.043-.266-.194-.433-.183-.203-.452-.397-.865-.686l-.056-.04c-.352-.246-.778-.543-1.172-.936z" fill="gray"/></svg>
